resources/icons/audio-play.svg

<svg width="20" height="21" viewBox="0 0 20 21" fill="none" xmlns="http://www.w3.org/2000/svg">
<path d="M12.8524 6.67C15.5758 8.3459 16.9374 9.18385 17.1933 10.3506C17.2804 10.7476 17.2804 11.1587 17.1933 11.5557C16.9374 12.7224 15.5758 13.5603 12.8524 15.2362C9.89049 17.059 8.40952 17.9703 7.20994 17.6192C6.80365 17.5003 6.42944 17.2912 6.11523 17.0075C5.1875 16.1699 5.1875 14.431 5.1875 10.9531C5.1875 7.47528 5.1875 5.73636 6.11523 4.89874C6.42945 4.61505 6.80365 4.40594 7.20994 4.28702C8.40952 3.93591 9.89049 4.84727 12.8524 6.67Z" fill="currentColor"/>
</svg>

<svg width="20" height="21" viewBox="0 0 20 21" fill="none" xmlns="http://www.w3.org/2000/svg"><path d="M12.852 6.67c2.724 1.676 4.085 2.514 4.341 3.68.087.398.087.809 0 1.206-.256 1.166-1.617 2.004-4.34 3.68C9.89 17.06 8.41 17.97 7.21 17.62a2.812 2.812 0 0 1-1.095-.611c-.928-.838-.928-2.577-.928-6.055 0-3.478 0-5.217.928-6.054a2.813 2.813 0 0 1 1.095-.612c1.2-.351 2.68.56 5.642 2.383Z" fill="currentColor"/></svg>
